X: 14672
T: Gan Ainm
R: jig
M: 6/8
K: Bminor
gfe fBB|dBB FBB|gfe fBB|agf ede|
gfe fBB|dBB FBB|gfe agf|gfe fdB||
d2e fdf|edB ~A3|d2e fdf|ede gfe|
d2e fdf|edB dfg|agf ede|~a3 ~a3||

